Mono Glyph Icons/actions/unfilled/tools-media-optical-burn-image copy.svg

<svg clip-rule="evenodd" fill-rule="evenodd" stroke-linejoin="round" stroke-miterlimit="2" viewBox="0 0 250 250" xmlns="http://www.w3.org/2000/svg"><path d="m3.875 123.096.003-.712c.196-29.874 12.717-57.302 33.042-76.948 6.933-6.706 14.789-12.516 23.402-17.208 7.074-3.856 14.643-6.949 22.607-9.163 9.56-2.668 19.648-4.053 30.065-3.957.781.007 1.56.024 2.339.047 37.167 1.141 70.815 21.28 89.535 52.721 1.982 3.37 2.406 7.433 1.167 11.141-1.241 3.708-4.026 6.697-7.638 8.196-.201.194-.442.294-.683.393-5.884 2.444-12.669.145-15.858-5.372-1.085-1.865-2.24-3.678-3.46-5.437-.217-.258-.425-.528-.624-.81-.872-1.223-1.776-2.421-2.71-3.588-.123-.138-.244-.282-.362-.43-15.165-18.697-37.93-29.616-61.955-29.837l-.15-.002h-.211c-4.023-.019-8.081.26-12.144.857-5.208.761-10.228 2.005-15.021 3.677-17.435 6.108-32.173 18.016-41.875 33.421-2.232 3.548-4.193 7.274-5.859 11.142-4.124 9.591-6.452 20.14-6.553 31.226-.266 28.887 14.641 54.404 37.281 68.973 5.846 3.755 12.182 6.769 18.857 8.933 7.627 2.465 15.749 3.83 24.183 3.908 2.484.022 4.963-.069 7.43-.273 6.959-.578 13.797-2.05 20.349-4.369.121-.044.243-.086.365-.126 1.47-.529 2.926-1.1 4.364-1.712 6.179-2.683 13.389-.402 16.898 5.348l.092-.055c2.052 3.361 2.549 7.444 1.365 11.201-1.185 3.754-3.936 6.814-7.545 8.388-1.74.722-3.497 1.402-5.27 2.04-.337.155-.683.297-1.035.425-2.684.921-5.4 1.746-8.144 2.47-.441.167-.893.311-1.354.432-5.808 1.414-11.72 2.387-17.684 2.881-9.996.853-19.827.301-29.285-1.5-8.453-1.604-16.588-4.202-24.266-7.676-1.922-.869-3.814-1.794-5.675-2.77-8.123-4.264-15.66-9.537-22.431-15.666-8.803-7.962-16.327-17.388-22.158-27.968-7.134-12.93-11.718-27.535-13.018-43.193-.252-3.036-.376-6.054-.376-9.048zm80.102 1.896c-.044-.746-.06-1.498-.048-2.257.161-16.092 12.976-29.35 29.217-29.898 16.563-.558 30.461 12.307 31.229 28.811.1 1.769.046 3.571-.175 5.391-2.013 16.58-17.085 28.389-33.665 26.377-14.811-1.798-25.815-14.018-26.558-28.424zm20.123-1.426c.274 5.485 4.899 9.755 10.408 9.568 5.363-.181 9.607-4.52 9.736-9.817.004-.281-.005-.56-.024-.835-.416-4.635-4.019-8.51-8.826-9.093-5.527-.671-10.55 3.265-11.221 8.791-.057.466-.081.929-.073 1.386zm11.95-65.865c5.56.16 9.946 4.805 9.785 10.366-.16 5.563-4.804 9.947-10.366 9.787-25.042-.721-45.925 18.995-46.646 44.037-.161 5.561-4.804 9.945-10.366 9.787-5.561-.16-9.946-4.806-9.786-10.366 1.04-36.173 31.206-64.651 67.379-63.611z"/><path d="m174.809 172.24h-11.114c-2.034-.093-4.234-1-5.722-2.354-1.348-1.491-2.342-3.694-2.342-5.731s.93-4.31 2.354-5.72c1.418-1.406 3.681-2.231 5.71-2.322h11.114v-14.178h-11.114c-2.035-.094-4.235-1.001-5.722-2.355-1.348-1.491-2.342-3.696-2.342-5.73 0-2.031.915-4.304 2.322-5.749 1.417-1.455 3.698-2.316 5.742-2.413h11.114v-10.996c.093-2.032 1.001-4.235 2.356-5.723 1.489-1.346 3.694-2.341 5.729-2.341 2.037 0 4.242 1.002 5.722 2.353 1.335 1.487 2.23 3.684 2.321 5.711v10.996h14.178v-10.996c.093-2.032 1.002-4.236 2.356-5.724 1.49-1.346 3.694-2.34 5.729-2.34 2.033 0 4.239.984 5.748 2.321 1.386 1.489 2.316 3.702 2.413 5.743v10.996h10.997c2.046.1 4.267 1.045 5.755 2.447 1.332 1.519 2.308 3.727 2.308 5.757 0 2.037-1.002 4.241-2.353 5.72-1.487 1.337-3.684 2.232-5.71 2.323h-10.997v14.178h10.997c2.03.093 4.235 1.001 5.723 2.355 1.346 1.49 2.34 3.693 2.34 5.73s-1.002 4.241-2.353 5.72c-1.487 1.337-3.685 2.231-5.71 2.322h-10.997v11.114c-.099 2.047-1.042 4.266-2.447 5.754-1.519 1.334-3.726 2.311-5.756 2.311-2.037 0-4.24-1.001-5.721-2.354-1.336-1.486-2.231-3.683-2.322-5.711v-11.114h-14.178v11.114c-.093 2.033-1.001 4.236-2.355 5.722-1.49 1.348-3.694 2.343-5.73 2.343-2.037 0-4.241-1.001-5.721-2.355-1.336-1.485-2.231-3.682-2.322-5.71zm16.128-16.127h14.178v-14.178h-14.178z"/></svg>

<?xml version="1.0" encoding="utf-8"?>
<svg clip-rule="evenodd" fill-rule="evenodd" stroke-linejoin="round" stroke-miterlimit="2" viewBox="0 0 250 250" xmlns="http://www.w3.org/2000/svg">
  <path d="M 3.878 122.384 C 4.074 92.51 16.595 65.082 36.92 45.436 C 43.853 38.73 51.709 32.92 60.322 28.228 C 67.396 24.372 74.965 21.279 82.929 19.065 C 92.489 16.397 102.577 15.012 112.994 15.108 C 113.775 15.115 114.554 15.132 115.333 15.155 C 152.5 16.296 186.148 36.435 204.868 67.876 C 206.85 71.246 207.274 75.309 206.035 79.017 C 204.794 82.725 202.009 85.714 198.397 87.213 C 198.196 87.407 197.955 87.507 197.714 87.606 C 191.83 90.05 185.045 87.751 181.856 82.234 C 180.771 80.369 179.616 78.556 178.396 76.797 C 178.179 76.539 177.971 76.269 177.772 75.987 C 176.9 74.764 175.996 73.566 175.062 72.399 C 174.939 72.261 174.818 72.117 174.7 71.969 C 159.535 53.272 136.77 42.353 112.745 42.132 L 112.595 42.13 L 112.384 42.13 C 108.361 42.111 104.303 42.39 100.24 42.987 C 95.032 43.748 90.012 44.992 85.219 46.664 C 67.784 52.772 53.046 64.68 43.344 80.085 C 41.112 83.633 39.151 87.359 37.485 91.227 C 33.361 100.818 31.033 111.367 30.932 122.453 C 30.666 151.34 45.573 176.857 68.213 191.426 C 74.059 195.181 80.395 198.195 87.07 200.359 C 94.697 202.824 102.819 204.189 111.253 204.267 C 113.737 204.289 116.216 204.198 118.683 203.994 C 125.642 203.416 132.48 201.944 139.032 199.625 C 139.153 199.581 139.275 199.539 139.397 199.499 C 140.867 198.97 142.323 198.399 143.761 197.787 C 149.94 195.104 157.15 197.385 160.659 203.135 L 160.751 203.08 C 162.803 206.441 163.3 210.524 162.116 214.281 C 160.931 218.035 158.18 221.095 154.571 222.669 C 152.831 223.391 151.074 224.071 149.301 224.709 C 148.964 224.864 148.618 225.006 148.266 225.134 C 145.582 226.055 142.866 226.88 140.122 227.604 C 139.681 227.771 139.229 227.915 138.768 228.036 C 132.96 229.45 127.048 230.423 121.084 230.917 C 111.088 231.77 101.257 231.218 91.799 229.417 C 83.346 227.813 75.211 225.215 67.533 221.741 C 65.611 220.872 63.719 219.947 61.858 218.971 C 53.735 214.707 46.198 209.434 39.427 203.305 C 30.624 195.343 23.1 185.917 17.269 175.337 C 10.135 162.407 5.551 147.802 4.251 132.144 C 3.999 129.108 3.875 126.09 3.875 123.096 Z M 83.929 122.735 C 84.09 106.643 96.905 93.385 113.146 92.837 C 129.709 92.279 143.607 105.144 144.375 121.648 C 144.475 123.417 144.421 125.219 144.2 127.039 C 142.187 143.619 127.115 155.428 110.535 153.416 C 95.724 151.618 84.72 139.398 83.977 124.992 C 83.933 124.246 83.917 123.494 83.929 122.735 Z M 104.1 123.566 C 104.374 129.051 108.999 133.321 114.508 133.134 C 119.871 132.953 124.115 128.614 124.244 123.317 C 124.248 123.036 124.239 122.757 124.22 122.482 C 123.804 117.847 120.201 113.972 115.394 113.389 C 109.867 112.718 104.844 116.654 104.173 122.18 C 104.116 122.646 104.092 123.109 104.1 123.566 Z M 125.835 68.067 C 125.675 73.63 121.031 78.014 115.469 77.854 C 90.427 77.133 69.544 96.849 68.823 121.891 C 68.662 127.452 64.019 131.836 58.457 131.678 C 52.896 131.518 48.511 126.872 48.671 121.312 C 49.711 85.139 79.877 56.661 116.05 57.701 C 121.61 57.861 125.996 62.506 125.835 68.067 Z M 174.809 172.24 L 163.695 172.24 C 161.661 172.147 159.461 171.24 157.973 169.886 C 156.625 168.395 155.631 166.192 155.631 164.155 C 155.631 162.118 156.561 159.845 157.985 158.435 C 159.403 157.029 161.666 156.204 163.695 156.113 L 174.809 156.113 L 174.809 141.935 L 163.695 141.935 C 161.66 141.841 159.46 140.934 157.973 139.58 C 156.625 138.089 155.631 135.884 155.631 133.85 C 155.631 131.819 156.546 129.546 157.953 128.101 C 159.37 126.646 161.651 125.785 163.695 125.688 L 174.809 125.688 L 174.809 114.692 C 174.902 112.66 175.81 110.457 177.165 108.969 C 178.654 107.623 180.859 106.628 182.894 106.628 C 184.931 106.628 187.136 107.63 188.616 108.981 C 189.951 110.468 190.846 112.665 190.937 114.692 L 190.937 125.688 L 205.115 125.688 L 205.115 114.692 C 205.208 112.66 206.117 110.456 207.471 108.968 C 208.961 107.622 211.165 106.628 213.2 106.628 C 215.233 106.628 217.439 107.612 218.948 108.949 C 220.334 110.438 221.264 112.651 221.361 114.692 L 221.361 125.688 L 232.358 125.688 C 234.404 125.788 236.625 126.733 238.113 128.135 C 239.445 129.654 240.421 131.862 240.421 133.892 C 240.421 135.929 239.419 138.133 238.068 139.612 C 236.581 140.949 234.384 141.844 232.358 141.935 L 221.361 141.935 L 221.361 156.113 L 232.358 156.113 C 234.388 156.206 236.593 157.114 238.081 158.468 C 239.427 159.958 240.421 162.161 240.421 164.198 C 240.421 166.235 239.419 168.439 238.068 169.918 C 236.581 171.255 234.383 172.149 232.358 172.24 L 221.361 172.24 L 221.361 183.354 C 221.262 185.401 220.319 187.62 218.914 189.108 C 217.395 190.442 215.188 191.419 213.158 191.419 C 211.121 191.419 208.918 190.418 207.437 189.065 C 206.101 187.579 205.206 185.382 205.115 183.354 L 205.115 172.24 L 190.937 172.24 L 190.937 183.354 C 190.844 185.387 189.936 187.59 188.582 189.076 C 187.092 190.424 184.888 191.419 182.852 191.419 C 180.815 191.419 178.611 190.418 177.131 189.064 C 175.795 187.579 174.9 185.382 174.809 183.354 Z M 190.937 156.113 L 205.115 156.113 L 205.115 141.935 L 190.937 141.935 Z"/>
</svg>
